front/assets/images/coche-ronde-inactive.svg

<svg width="20" height="20" viewBox="0 0 20 20" fill="none" xmlns="http://www.w3.org/2000/svg">
    <path fill-rule="evenodd" clip-rule="evenodd" d="M10 20C4.477 20 0 15.523 0 10C0 4.477 4.477 0 10 0C15.523 0 20 4.477 20 10C20 15.523 15.523 20 10 20ZM10 18C14.4183 18 18 14.4183 18 10C18 5.58172 14.4183 2 10 2C5.58172 2 2 5.58172 2 10C2 14.4183 5.58172 18 10 18ZM9.003 14L4.76 9.757L6.174 8.343L9.003 11.172L14.659 5.515L16.074 6.929L9.003 14Z" fill="#929292"/>
</svg>

<svg xmlns="http://www.w3.org/2000/svg" width="20" height="20" fill="none"><path fill="#929292" fill-rule="evenodd" d="M10 20C4.477 20 0 15.523 0 10S4.477 0 10 0s10 4.477 10 10-4.477 10-10 10m0-2a8 8 0 1 0 0-16 8 8 0 0 0 0 16m-.997-4L4.76 9.757l1.414-1.414 2.829 2.829 5.656-5.657 1.415 1.414z" clip-rule="evenodd"/></svg>
